X:1
T:Missionary’s Adieu, CMD
T:A Compilation of Genuine Church Music,  1847
T:Missionary’s Adieu, CMD
T:Public Domain
C:A Compilation of Genuine Church Music,  1847
Z:Public Domain
%%score ( 1 2 ) ( 3 4 )
L:1/8
M:4/4
K:A
V:1 treble 
V:2 treble 
V:3 bass 
V:4 bass 
V:1
 E2 | [EA]3 [EG] [EA]3 [EB] | [Ac]3 [Ac] [Ae]3 [Ac] | [Bd]3 A [EB]3 [Ec] | [EA]4 z2 E2 | %5
 [EA]3 [EG] [EA]3 [EB] | [Ac]3 [Ac] [Ae]3 [Ac] | [GB]3 A [EB]3 [Ec] | [EA]4 z2 [Ae]2 | %9
 [Ae]3 G G3 [GB] | [GB]3 [FA] [FA]3 F | E3 [EA] A3 ([GB]/[Ac]/) | [GB]4 z2 E2 | [EA]3 G A3 [GB] | %14
 [Ac]3 [Ac] [Ae]3 [Ac] | [GB]3 [GB] [Ee]3 [EG] | [EA]4 |] %17
V:2
 E2 | x8 | x8 | x3 A x4 | x6 E2 | x8 | x8 | x3 A x4 | x8 | x3 G G3 x | x7 F | E3 A3 x2 | x6 E2 | %13
 x3 G A3 x | x8 | x8 | x4 |] %17
V:3
 [A,C]2 | [A,C]3 [E,B,] [A,C]3 [G,E] | [A,E]3 [A,E] [CE]3 [A,E] | [E,E]3 [E,C] [E,B,]3 [E,E] | %4
 [A,,C]4 z2 [A,C]2 | [A,C]3 [E,B,] [A,C]3 [G,E] | [A,E]3 [A,E] [CE]3 [A,E] | %7
 [E,E]3 [E,C] [E,B,]3 [E,E] | [A,,C]4 z2 [E,C]2 | [E,C]3 [E,B,] [E,B,]3 [E,E] | %10
 [E,E]3 [A,C] [A,C]3 [A,C] | [A,E]3 [A,C] [F,C]3 (B,/A,/) | [E,E]4 z2 [G,B,]2 | %13
 [A,C]3 [E,B,] [A,C]3 [G,D] | [A,E]3 [A,E] C3 [A,E] | [E,E]3 [E,E] [E,C]3 [E,B,] | [A,,C]4 |] %17
V:4
 x2 | x8 | x8 | x8 | x8 | x8 | x8 | x8 | x8 | x8 | x8 | x7 F, | x8 | x8 | x4 C3 x | x8 | x4 |] %17

